assets/images/payment-method-icons/mastercard.svg

<svg fill="none" height="40" viewBox="0 0 64 40" width="64" xmlns="http://www.w3.org/2000/svg"><rect fill="#fff" height="39" rx="3.5" width="63" x=".5" y=".5"/><rect height="39" rx="3.5" stroke="#ddd" width="63" x=".5" y=".5"/><g clip-rule="evenodd" fill-rule="evenodd"><path d="m53.3454 27.1062v-.4688h-.1214l-.141.3227-.141-.3227h-.1223v.4688h.0866v-.3533l.1317.3049h.09l.1316-.3058v.3542h.0867zm-.7745 0v-.389h.1571v-.079h-.3991v.079h.1571v.389zm.8-6.9699c0 7.2552-5.8667 13.1363-13.104 13.1363-7.2357 0-13.1023-5.8811-13.1023-13.1363 0-7.2543 5.8666-13.1363 13.1031-13.1363s13.1032 5.882 13.1032 13.1363z" fill="#f79f1a"/><path d="m37.2064 20.1363c0 7.2552-5.8667 13.1363-13.1032 13.1363-7.2357 0-13.1032-5.8811-13.1032-13.1363 0-7.2543 5.8667-13.1363 13.104-13.1363 7.2357 0 13.1024 5.882 13.1024 13.1363z" fill="#ea001b"/><path d="m32.1856 9.7959c-1.5663 1.2296-2.8323 2.7996-3.7019 4.5911-.8696 1.7914-1.32 3.7573-1.3172 5.7486 0 4.1979 1.9618 7.9372 5.0191 10.3423 3.0574-2.4051 5.0192-6.1444 5.0192-10.3423.0028-1.9913-.4476-3.9572-1.3172-5.7486-.8696-1.7915-2.1356-3.3615-3.702-4.5911z" fill="#ff5f01"/></g></svg>

<svg
	width="64"
	height="40"
	viewBox="0 0 64 40"
	fill="none"
	xmlns="http://www.w3.org/2000/svg"
>
	<rect x="0.5" y="0.5" width="63" height="39" rx="3.5" fill="white" />
	<rect
		x="0.5"
		y="0.5"
		width="63"
		height="39"
		rx="3.5"
		stroke="#DDDDDD"
	/>
	<path
		fill-rule="evenodd"
		clip-rule="evenodd"
		d="M53.3454 27.1062V26.6374H53.224L53.083 26.9601L52.942 26.6374H52.8197V27.1062H52.9063V26.7529L53.038 27.0578H53.128L53.2596 26.752V27.1062H53.3463H53.3454ZM52.5709 27.1062V26.7172H52.728V26.6382H52.3289V26.7172H52.486V27.1062H52.5709ZM53.3709 20.1363C53.3709 27.3915 47.5042 33.2726 40.2669 33.2726C33.0312 33.2726 27.1646 27.3915 27.1646 20.1363C27.1646 12.882 33.0312 7 40.2677 7C47.5042 7 53.3709 12.882 53.3709 20.1363Z"
		fill="#F79F1A"
	/>
	<path
			fill-rule="evenodd"
		clip-rule="evenodd"
		d="M37.2064 20.1363C37.2064 27.3915 31.3397 33.2726 24.1032 33.2726C16.8675 33.2726 11 27.3915 11 20.1363C11 12.882 16.8667 7 24.104 7C31.3397 7 37.2064 12.882 37.2064 20.1363Z"
		fill="#EA001B"
	/>
	<path
			fill-rule="evenodd"
		clip-rule="evenodd"
		d="M32.1856 9.7959C30.6193 11.0255 29.3533 12.5955 28.4837 14.387C27.6141 16.1784 27.1637 18.1443 27.1665 20.1356C27.1665 24.3335 29.1283 28.0728 32.1856 30.4779C35.243 28.0728 37.2048 24.3335 37.2048 20.1356C37.2076 18.1443 36.7572 16.1784 35.8876 14.387C35.018 12.5955 33.752 11.0255 32.1856 9.7959Z"
		fill="#FF5F01"
	/>
</svg>
